X: 1
T: Reconciliation
O: arr. Elke Baker
R: reel
S: printed copy from Potomac Valley Scottish Fiddle Club, in Concord Slow Scottish Session collection
Z: 2015 John Chambers <jc:trillian.mit.edu>
M: C|
L: 1/8
K: A
E2 |\
"A"A2 c/B/A eAfA | "A"eAfA "E"ecBc |\
"A"A2 c/B/A eAfA | "D"ecBc "E"AFEF |\
"A"A2 c/B/A eAfA |
"A"eAfA ecBc |\
"A"ABAF "D"Ecdf | "E"ecBc "A"A2 :|\
|: cB |\
"A"ABce a3f | "D"efed "E"cdBc |
"A"ABce a2ag | "D"fbba "E"gefg |\
"A"agae f/g/a ec | "Bm"dBcA BAFG |\
"A"ABAF "D"Ecdf | "E"ecBc "A"A2 :|
